X:15
T: ES STEHEN DREI STERNE AM HIMMEL
N: Z0016
O: Europa, Mitteleuropa, Deutschland, Westfalen
R: Sagen - Lied, Romanze, falsche Liebe, Tod
M: 6/8
L: 1/16
K: F
C2 | F3EF2G3FG2 | A3BAGF4
AB | c3dc2F3AG2 | A6z4
C2 | F3EF2G3FG2 | A3BAGF4
AB | c3dc2F3AG2 | A6z4
EF | G4A2A3Bc2 | B6G4z2
A4G2F4G2 | A3BAGF4z2 | A3BAGF4

